X:1
T: Clifton
C:C Sherrit
R:Strathspey
Q: 128
K:D
M:4/4
L:1/16
A2|:F4 F3A B3G Bd3|c3A ((3g2f2e2) f3e dc3|B4 B3d A3d fd3|e3E e3d ((3c2B2A2) ((3G2F2E2) |
F4 F3A B3G Bd3|c3A ((3g2f2e2) f3e dc3|B4 B3d A3d fa3|1g3e ce3 d4A4:|2g3e ce3 d4g4|
|:f4 f3a g3e cA3|B3c ((3d2c2B2) A3d fa3|g4 g3e f4 f3d|((3e2f2e2) ((3d2c2B2) A4 a3g|
f4 f3a g3e cA3|B3c ((3d2c2B2) A3d fa3|g3f e3d A3d fa3|1g3e ce3 d4g4:|2g3e ce3 d6||
